X: 021490
T: Battle of Aughrim
T: Cath Eachroma
S: B.Breathnach: "Ceol Rince na hEireann" II/118 
Z: B.Black
L: 1/8
M: 2/4
R: polka
K: Ador
A/G/|EA A/B/c/d/|eA A2|dG/G/ G/A/B/c/|dG G/A/B/G/|
EA A/B/c/d/|eA a2|e>e e/d/ (3B/c/d/|1 eA A :|2 BA A2||
ae e/f/g/b/|ae e2|gd d/c/d/e/|gd d2|
ae e/f/g/b/|aa/g/ ee/d/|c2 B/A/G/A/|BA A2 :|
